source/images/icons/icon-utility/help.svg

<?xml version="1.0" encoding="UTF-8"?>
<svg width="24px" height="24px" viewBox="0 0 24 24" version="1.1" xmlns="http://www.w3.org/2000/svg" xmlns:xlink="http://www.w3.org/1999/xlink">
    <!-- Generator: Sketch 55.2 (78181) - https://sketchapp.com -->
    <title>Icons/24px/Help</title>
    <desc>Created with Sketch.</desc>
    <g id="Icons/24px/Help" stroke="none" stroke-width="1" fill="none" fill-rule="evenodd">
        <path d="M21.5415799,17.4768075 C21.2662387,17.9555617 20.6549235,18.1204606 20.1761693,17.8451194 C19.697415,17.5697782 19.5325161,16.958463 19.8078573,16.4797087 C20.5851767,15.1281312 21,13.5954728 21,12 C21,7.02943725 16.9705627,3 12,3 C7.02943725,3 3,7.02943725 3,12 C3,16.9705627 7.02943725,21 12,21 C13.5972719,21 15.131579,20.5842381 16.4842343,19.8052528 C16.9628285,19.5296336 17.5742394,19.6941773 17.8498587,20.1727716 C18.1254779,20.6513658 17.9609342,21.2627767 17.48234,21.538396 C15.8280851,22.4910704 13.9499566,23 12,23 C5.92486775,23 1,18.0751322 1,12 C1,5.92486775 5.92486775,1 12,1 C18.0751322,1 23,5.92486775 23,12 C23,13.9477573 22.4922199,15.8238659 21.5415799,17.4768075 Z M10.043607,9.33668992 C9.86033485,9.85767914 9.28941822,10.131453 8.768429,9.94818083 C8.24743977,9.76490871 7.97366596,9.19399208 8.15693808,8.67300286 C8.80418725,6.83306211 10.6841162,5.72821129 12.6065065,6.05795233 C14.5288956,6.38769317 15.9331761,8.05587168 15.9302804,10.0048464 C15.9302804,11.2845716 15.1720868,12.2954893 13.984974,13.086897 C13.3360544,13.5195095 12.698531,13.802853 12.2465,13.9535298 C11.7225566,14.1281774 11.1562367,13.8450172 10.9815891,13.3210738 C10.8069415,12.7971305 11.0901017,12.2308106 11.6140451,12.056163 C11.6789135,12.0345402 11.8133744,11.9833171 11.992885,11.9035347 C12.2959882,11.7688223 12.598718,11.6073666 12.8755744,11.4227958 C13.5634638,10.9642034 13.9302759,10.4751211 13.930277,10.0033589 C13.9317277,9.02812575 13.2295863,8.19403517 12.2683912,8.02916465 C11.307196,7.86429413 10.3672316,8.41671954 10.043607,9.33668992 Z M11.3031657,17.7119532 C10.9126415,17.3214289 10.9126415,16.6882639 11.3031657,16.2977396 C11.69369,15.9072153 12.326855,15.9072153 12.7173793,16.2977396 C13.1079036,16.6882639 13.1079036,17.3214289 12.7173793,17.7119532 C12.326855,18.1024775 11.69369,18.1024775 11.3031657,17.7119532 Z" id="Icon" fill="#ADB5BD"></path>
    </g>
</svg>

<svg width="24" height="24">
    <title>
        Icons/24px/Help
    </title>
    <path d="M21.542 17.477a1 1 0 0 1-1.734-.997A8.953 8.953 0 0 0 21 12a9 9 0 1 0-9 9 8.953 8.953 0 0 0 4.484-1.195 1 1 0 0 1 .998 1.733A10.953 10.953 0 0 1 12 23C5.925 23 1 18.075 1 12S5.925 1 12 1s11 4.925 11 11c0 1.948-.508 3.824-1.458 5.477zm-11.498-8.14a1 1 0 0 1-1.887-.664 4 4 0 0 1 7.773 1.332c0 1.28-.758 2.29-1.945 3.082a7.575 7.575 0 0 1-1.739.867 1 1 0 0 1-.632-1.898 5.988 5.988 0 0 0 1.262-.633c.687-.459 1.054-.948 1.054-1.42a2 2 0 0 0-3.886-.666zm1.26 8.375a1 1 0 1 1 1.413-1.414 1 1 0 0 1-1.414 1.414z" fill="#ADB5BD" fill-rule="evenodd"/>
</svg>
